src/amo/components/CategoryIcon/img/firefox.svg

<svg xmlns="http://www.w3.org/2000/svg" width="64" height="64" viewBox="0 0 64 64">
  <g class="one" fill="#0F1126">
    <path d="M11.2325245,12.5791731 C16.3649325,6.93207302 23.5733047,3.69230769 31.3984,3.69230769 C35.787873,3.69230769 40.0291615,4.73384293 43.8604764,6.7021363 C44.4650911,7.01275003 45.2070303,6.77441519 45.517644,6.16980053 C45.8282577,5.56518587 45.5899229,4.82324667 44.9853082,4.51263294 C40.8085961,2.3668958 36.1821175,1.23076923 31.3984,1.23076923 C22.8743828,1.23076923 15.006392,4.76699673 9.4109217,10.9235961 C8.95374675,11.4266179 8.9909129,12.205011 9.49393461,12.662186 C9.99695632,13.1193609 10.7753495,13.0821948 11.2325245,12.5791731 Z"/>
  </g>
  <g class="two" fill="#0F1126">
    <path d="M24.0964923,31.0488615 C23.8168723,31.0488615 23.5418639,31.0012712 23.2824305,30.910355 C24.3682962,32.075892 27.2489993,32.8941311 30.5558618,31.3279138 C33.9041982,29.7427904 37.0770344,31.1103719 39.1715636,33.5183608 C41.5115289,36.1964714 39.4712495,39.5762543 36.2321581,39.4252082 C36.205427,39.4239482 36.1132466,39.4428002 35.9515841,39.5078678 C35.5650412,39.6634477 35.1049454,39.9508327 34.2868622,40.5375462 C33.8525741,40.8507357 33.619119,41.0180475 33.3862718,41.1791209 C32.6284211,41.7037362 31.7461864,42.1235355 30.789685,42.4385217 C33.1174979,43.1400508 35.6296394,43.2386171 37.9364996,42.7837517 C42.5114839,41.8814532 47.1771503,33.2693208 46.1172292,23.5753613 C45.9647444,22.1807467 46.9422033,21.1093338 48.1163699,20.8837323 C46.7581313,15.2521306 43.6401282,9.69931903 40.2954104,7.28808629 C38.3573361,5.89091367 39.3457035,2.82978462 41.7348923,2.82978462 C44.6339846,2.82978462 46.8629497,3.54780466 49.063668,5.17674934 C49.7879684,4.88494077 50.6533746,4.92731296 51.4042365,5.46494445 C51.8210307,5.76337711 52.4994347,6.30013613 53.3531879,7.0612239 C54.7571994,8.31284561 56.158354,9.75857745 57.4694942,11.3874659 C60.8202117,15.550213 63.0255183,20.1851441 63.5007459,25.2240284 C63.9561266,30.0502422 63.0484066,35.2346034 60.967953,39.7269634 C61.3120022,43.1339958 58.7893171,48.3358221 54.7782624,52.628509 C49.3411997,58.4473296 41.916533,62.0307692 33.3213538,62.0307692 C18.5045094,62.0307692 9.55220328,55.2691005 4.17627165,46.0576929 C0.196576535,39.247444 -1.34683711,26.7679183 2.91973468,17.2681497 C2.55533505,13.548321 3.27984301,10.4165059 4.74721254,7.90896115 C5.50249231,6.6182857 6.29447419,5.74233781 6.90984492,5.24721368 C8.47849964,3.98508216 10.816436,5.03745793 10.9117043,7.04857144 C10.9336899,7.51268616 11.1026167,8.36597954 11.5032547,9.16858851 C11.7064633,9.57568176 11.9453134,9.91102343 12.2244592,10.1735467 C13.9480421,9.7872708 15.778536,9.73034515 17.7023937,10.0296855 C18.2052251,9.52297169 18.812539,9.01827056 19.5066367,8.57098945 C21.5676804,7.24283941 24.0496705,6.63838339 26.8607778,7.0480003 C28.9737829,7.35589413 29.719399,10.0240362 28.0721283,11.3827445 C25.1969106,13.7542929 24.8846265,14.430381 24.9793742,14.7512178 C25.0171295,14.8784328 25.1917357,15.0370167 25.5332031,15.0341698 C27.7767763,15.0163637 29.7495792,15.0902952 30.9315655,15.3736833 L31.208008,15.4573884 C33.6793064,16.3671127 33.6800304,18.677319 32.8719384,20.6496761 C32.1973603,22.2971305 30.9870535,23.2775306 28.5916926,24.6979117 C28.503029,24.7504867 27.6705669,25.2390473 27.447182,25.3733016 C27.2393282,25.4982217 27.0616036,25.6082878 26.9069181,25.7083032 C27.121743,28.2452764 26.3200628,31.0488615 24.0964923,31.0488615 Z M56.1952542,38.2909365 C58.1256338,34.4505345 58.9941325,29.8695361 58.5994288,25.6863887 C58.2256657,21.7233423 56.4277547,17.9446417 53.6344559,14.4744009 C52.8812756,13.5386912 52.090636,12.6699784 51.2883399,11.8748075 C50.9209668,12.0401658 50.514728,12.1193332 50.1078046,12.0945069 C52.5049588,16.8781331 53.9634564,22.5525464 53.7297405,27.5474215 C53.6543431,29.1587827 52.2754324,30.0138811 50.987145,29.8828262 C49.9251712,38.9993356 44.8579695,46.4365801 38.8889958,47.6138074 C32.7855032,48.8172905 25.6929592,47.1745896 21.2176712,41.9295481 C19.6666485,40.1117481 21.3545711,37.3726299 23.6755933,37.9408942 C26.0566782,38.5238638 29.0768589,38.1747154 30.5848532,37.13082 C30.7790159,36.9965068 30.9738083,36.8569036 31.4177184,36.5369587 C31.7011641,36.3336769 31.9577791,36.1537469 32.1968691,35.992747 C24.4567614,39.32665 16.4201171,34.3503599 18.1194094,28.3200927 C18.7247481,26.169635 20.1839224,25.1851439 21.8134835,25.1401519 C21.698959,24.4567414 21.8776123,23.7510694 22.3144835,23.2016062 C22.6852399,22.7352971 23.1445594,22.3312758 23.7192407,21.9222583 C24.0614038,21.6787307 24.4361699,21.4391405 24.9111779,21.1536607 C25.1609308,21.0035592 26.0117047,20.5042516 26.0807084,20.4633344 C26.3846012,20.2831346 26.6550107,20.1161023 26.8935511,19.9621723 C26.4626394,19.9552756 26.0157948,19.9535716 25.5732613,19.9570837 C22.8111676,19.9801131 20.8736514,18.2203878 20.258825,16.1487481 C20.1231081,15.6891919 20.0514446,15.2286263 20.0508748,14.7613873 C19.4827604,15.1512261 18.7623731,15.2944878 18.0639786,15.12098 C15.9953783,14.6070609 14.1783449,14.6597768 12.5539909,15.1804786 C11.9416793,15.3767608 11.2768701,15.3256572 10.7017511,15.0380977 C9.60778204,14.5021968 8.72845903,13.7594223 8.02682703,12.8542127 C7.72544867,14.1447639 7.65513424,15.6358103 7.88471045,17.351274 C7.94884066,17.8304746 7.8704344,18.3179504 7.65927541,18.7528731 C3.80005564,26.7016811 5.12156727,37.9177299 8.42750113,43.5750064 C10.0920064,46.4270581 12.2798525,49.116909 15.4759454,51.5309151 C20.1586167,55.0677325 26.0250538,57.1076923 33.3213538,57.1076923 C40.4754855,57.1076923 46.6313002,54.1366512 51.1811222,49.2673679 C54.5483904,45.6636705 56.4711505,41.2909543 56.0861607,40.2510363 C55.8491417,39.6108108 55.888653,38.9009057 56.1952542,38.2909365 Z"/>
  </g>
</svg>

<svg xmlns="http://www.w3.org/2000/svg" width="64" height="64"><path d="M11.233 12.58c5.132-5.648 12.34-8.888 20.165-8.888 4.39 0 8.631 1.042 12.462 3.01a1.23 1.23 0 1 0 1.125-2.19 29.644 29.644 0 0 0-13.587-3.281c-8.524 0-16.392 3.536-21.987 9.693a1.23 1.23 0 0 0 1.822 1.655Z" class="one" fill="#0F1126"/><path d="M24.096 31.049c-.28 0-.554-.048-.814-.139 1.086 1.166 3.967 1.984 7.274.418 3.348-1.585 6.521-.218 8.616 2.19 2.34 2.678.3 6.058-2.94 5.907a.964.964 0 0 0-.28.083c-.387.155-.847.443-1.665 1.03-.434.313-.668.48-.9.641-.759.525-1.64.945-2.597 1.26 2.327.701 4.84.8 7.146.345 4.575-.903 9.241-9.515 8.181-19.209-.152-1.394.825-2.466 2-2.691-1.359-5.632-4.477-11.185-7.822-13.596-1.938-1.397-.95-4.458 1.44-4.458 2.899 0 5.128.718 7.329 2.347a2.411 2.411 0 0 1 2.34.288c.417.298 1.095.835 1.95 1.596a36.35 36.35 0 0 1 4.115 4.326c3.351 4.163 5.557 8.798 6.032 13.837.455 4.826-.453 10.01-2.533 14.503.344 3.407-2.179 8.609-6.19 12.902-5.437 5.818-12.861 9.402-21.457 9.402-14.816 0-23.769-6.762-29.145-15.973-3.98-6.81-5.523-19.29-1.256-28.79-.365-3.72.36-6.851 1.827-9.359.755-1.29 1.547-2.167 2.163-2.662 1.568-1.262 3.906-.21 4.002 1.802.022.464.19 1.317.591 2.12.203.407.442.742.721 1.005 1.724-.387 3.555-.444 5.478-.144a10.796 10.796 0 0 1 1.805-1.459c2.06-1.328 4.543-1.933 7.354-1.523 2.113.308 2.858 2.976 1.211 4.335-2.875 2.371-3.187 3.047-3.093 3.368.038.127.213.286.554.283 2.244-.018 4.217.056 5.399.34l.276.083c2.471.91 2.472 3.22 1.664 5.193-.675 1.647-1.885 2.628-4.28 4.048-.089.052-.921.541-1.145.675-.208.125-.385.235-.54.335.215 2.537-.587 5.34-2.81 5.34Zm32.1 7.242c1.93-3.84 2.798-8.421 2.403-12.605-.373-3.963-2.171-7.741-4.965-11.212a31.309 31.309 0 0 0-2.346-2.6 2.511 2.511 0 0 1-1.18.22c2.397 4.784 3.855 10.459 3.622 15.453-.076 1.612-1.455 2.467-2.743 2.336-1.062 9.116-6.129 16.554-12.098 17.73-6.103 1.204-13.196-.438-17.671-5.683-1.551-1.818.137-4.557 2.458-3.99 2.38.584 5.4.235 6.909-.81.194-.133.389-.273.833-.593.283-.203.54-.383.779-.544-7.74 3.334-15.777-1.643-14.078-7.673.606-2.15 2.065-3.135 3.694-3.18a2.462 2.462 0 0 1 .501-1.938c.371-.467.83-.87 1.405-1.28.342-.243.717-.483 1.192-.768.25-.15 1.1-.65 1.17-.69.304-.18.574-.348.813-.502-.431-.007-.878-.008-1.32-.005-2.763.023-4.7-1.737-5.315-3.808a4.892 4.892 0 0 1-.208-1.388 2.461 2.461 0 0 1-1.987.36c-2.069-.514-3.886-.461-5.51.06a2.462 2.462 0 0 1-1.852-.143 7.54 7.54 0 0 1-2.675-2.184c-.302 1.29-.372 2.782-.142 4.497.064.48-.015.967-.226 1.402-3.859 7.949-2.537 19.165.769 24.822 1.664 2.852 3.852 5.542 7.048 7.956 4.683 3.537 10.55 5.577 17.845 5.577 7.154 0 13.31-2.971 17.86-7.84 3.367-3.604 5.29-7.977 4.905-9.017a2.462 2.462 0 0 1 .11-1.96Z" class="two" fill="#0F1126"/></svg>
